!!!COM: Palestrina, Giovanni Perluigi da
!!!OPR: Nasce la gioia mia
!!!OTL: Benedictus
**kern	**kern	**kern	**kern
*Ibass	*Itenor	*Itenor	*Icant
!Bassus	!Tenor 2	!Tenor 1	!Cantus
*clefF4	*clefGv2	*clefGv2	*clefG2
*k[b-]	*k[b-]	*k[b-]	*k[b-]
*G:dor	*G:dor	*G:dor	*G:dor
*M4/2	*M4/2	*M4/2	*M4/2
=1	=1	=1	=1
0r	1d	0r	0r
.	1d	.	.
=2	=2	=2	=2
0r	1g	1r	0r
.	2f	1d	.
.	2d	.	.
=3	=3	=3	=3
0r	1f	1d	0r
.	1e	1g	.
=4	=4	=4	=4
0r	2d	2f	1r
.	4f	2d	.
.	4e	.	.
.	4d	[1f	1a
.	4c	.	.
.	[2d	.	.
=5	=5	=5	=5
0r	2d]	2f]	1a
.	2c	2e	.
.	4B-	4d	1dd
.	4c	4e	.
.	4d	4f	.
.	4e	4g	.
=6	=6	=6	=6
0r	2.f	2.a	2cc
.	.	.	2a
.	4e	4g	.
.	2e	2g	1cc
.	2f	[2a	.
=7	=7	=7	=7
1r	2g	4a]	1b-
.	.	4g	.
.	2G	1g	.
1D	2.d	.	2a
.	.	2f	4d
.	4c	.	4e
=8	=8	=8	=8
1D	2B-	1.d	4f
.	.	.	4g
.	2A	.	1a
1G	1B-	.	.
.	.	2e	2g
=9	=9	=9	=9
2F	2A	4f	0a
.	.	4c	.
2D	1d	2.f	.
1F	.	.	.
.	.	4e	.
.	2d	[2d	.
=10	=10	=10	=10
1E	1g	2d]	2r
.	.	2c#	2g
1D	2.f	[1d	2b-
.	.	.	2a
.	4d	.	.
=11	=11	=11	=11
2r	1f	1d]	0a
1d	.	.	.
.	1e	1A	.
2c	.	.	.
=12	=12	=12	=12
2B	2d	0r	1g
2.c	4e	.	.
.	4d	.	.
.	4e	.	1g
4B-	4f	.	.
4B-	[2g	.	.
8A	.	.	.
8G	.	.	.
=13	=13	=13	=13
1A	2g]	1r	1cc
.	2f#	.	.
1G	2g	2r	2b-
.	2G	2d	2g
=14	=14	=14	=14
0r	4G	2d	1b-
.	4A	.	.
.	4B-	2g	.
.	4c	.	.
.	4d	2f	1a
.	4e	.	.
.	2f	2d	.
=15	=15	=15	=15
2r	1c	1e-	0g
1c	.	.	.
.	2G	1d	.
2B	2G	.	.
=16	=16	=16	=16
2c	2.g	1c	1e
2c	.	.	.
.	4f	.	.
2c	2e	2r	2g
2A	2c	2f	2a
=17	=17	=17	=17
1B-	1r	2f	4d
.	.	.	4e
.	.	2d	4f
.	.	.	4g
1A	2r	2f	2a
.	2A	4e	2cc
.	.	4d	.
=18	=18	=18	=18
0r	2c	2e	2cc
.	2d	2f	2a
.	4G	4g	1b-
.	4A	4f	.
.	4B-	4d	.
.	4c	4e	.
=19	=19	=19	=19
0r	2d	2f	2.a
.	1f	2d	.
.	.	.	8g
.	.	.	8f
.	.	1c	2g
.	2e	.	2g
=20	=20	=20	=20
1F	1f	2r	1a
.	.	2A	.
2F	2r	2c	1r
2D	2B-	2d	.
=21	=21	=21	=21
1E-	2B-	4G	1r
.	.	4A	.
.	2G	4B-	.
.	.	4c	.
1D	2A	4d	2r
.	.	4e	.
.	2F	4f	2a
.	.	4d	.
=22	=22	=22	=22
2C	4G	2e-	2cc
.	4A	.	.
2BB-	2.B-	1d	2dd
2.E-	.	.	2.g
.	4A	.	.
.	[2G	2c	.
4E-	.	.	4a
=23	=23	=23	=23
1D	2G]	1d	2b-
.	2F	.	2a
1r	2B-	2r	4d
.	.	.	4e
.	2B-	2d	4f
.	.	.	4g
=24	=24	=24	=24
2r	1A	2f	4a
.	.	.	4b-
2A	.	4e	2.cc
.	.	4d	.
2c	1r	2e	.
.	.	.	4b-
2d	.	2f	2a
=25	=25	=25	=25
1G	0r	2e	2.g
.	.	1d	.
.	.	.	4f
2A	.	.	2e
2A	.	2c#	2e
=26	=26	=26	=26
1D	2r	2d	2d
.	2A	2f	2a
1r	2c	2e	2a
.	2d	2f	2a
=27	=27	=27	=27
1r	4G	1g	1b-
.	4A	.	.
.	4B-	.	.
.	4c	.	.
1D	4d	2.f	2.a
.	4e	.	.
.	2f	.	.
.	.	4e	4g
=28	=28	=28	=28
2F	4f	4d	2a
.	4e	4c	.
2G	2d	4B-	2b-
.	.	8c	.
.	.	8d	.
1C	2.c	1e-	4a
.	.	.	4g
.	.	.	[2g
.	4B-	.	.
=29	=29	=29	=29
1D	1.A	1.d	2g]
.	.	.	4f#
.	.	.	4e
1D	.	.	2f#
.	2A	2d	2f#
=30	=30	=30	=30
0G	0B	0d	0g
*-	*-	*-	*-
!! Hosanna
**kern	**kern	**kern	**kern	**kern	**kern
*Ibass	*Itenor	*Itenor	*Icalto	*Icant	*Icant
!Bassus	!Tenor 2	!Tenor 1	!Altus	!Cantus 2	!Cantus 1
*clefF4	*clefGv2	*clefGv2	*clefG2	*clefG2	*clefG2
*k[b-]	*k[b-]	*k[b-]	*k[b-]	*k[b-]	*k[b-]
*G:dor	*G:dor	*G:dor	*G:dor	*G:dor	*G:dor
*M4/2	*M4/2	*M4/2	*M4/2	*M4/2	*M4/2
=31	=31	=31	=31	=31	=31
0r	1r	1r	1d	0r	1r
.	1G	1g	2d	.	1b
.	.	.	2d	.	.
=32	=32	=32	=32	=32	=32
0r	2G	2d	1.g	0r	2b
.	2G	2d	.	.	2b
.	2c	2e	.	.	2.cc
.	2F	2f	2a	.	.
.	.	.	.	.	4a
=33	=33	=33	=33	=33	=33
0r	0G	2d	0g	1r	2b
.	.	2e-	.	.	1cc
.	.	1d	.	2r	.
.	.	.	.	2g	2b
=34	=34	=34	=34	=34	=34
1C	1c	2c	2e	2g	0cc
.	.	2.g	2e	2g	.
2C	2.c	.	2e	[1cc	.
.	.	4f	.	.	.
2C	.	4e	2g	.	.
.	4B-	4d	.	.	.
=35	=35	=35	=35	=35	=35
2F	2A	2c	2a	2cc]	0r
2BB-	2F	2d	4g	4b-	.
.	.	.	4f	4a	.
[1C	1c	2e	2e	2g	.
.	.	2a	[2f	2f	.
=36	=36	=36	=36	=36	=36
1C]	1c	2g	2f]	1g	1cc
.	.	2c	2e	.	.
[1F	1r	1c	2.f	4f	2cc
.	.	.	.	4g	.
.	.	.	.	4a	2cc
.	.	.	4g	4b-	.
=37	=37	=37	=37	=37	=37
1F]	1A	2r	0a	2cc	2.ff
.	.	2c	.	2cc	.
.	.	.	.	.	4ee
1r	2A	2c	.	2cc	4cc
.	.	.	.	.	4dd
.	2A	2c	.	2cc	[2ee
=38	=38	=38	=38	=38	=38
0r	2d	2f	1r	2a	4ee]
.	.	.	.	.	4dd
.	2G	2g	.	2b-	1dd
.	1A	1e	2r	1a	.
.	.	.	2a	.	2cc#
=39	=39	=39	=39	=39	=39
0r	1d	2d	2a	2a	2dd
.	.	2d	2a	4d	2ff
.	.	.	.	4e	.
.	1r	2d	2b-	4f	2ff
.	.	.	.	4g	.
.	.	2d	[2a	2a	2ff
=40	=40	=40	=40	=40	=40
1r	1r	2g	4a]	2b	2dd
.	.	.	4g	.	.
.	.	2c	2g	2cc	2ee-
1D	2r	1d	2f	[1a	1dd
.	2f	.	4d	.	.
.	.	.	4e	.	.
=41	=41	=41	=41	=41	=41
2D	2f	1d	4f	2a]	1dd
.	.	.	4g	.	.
2D	2f	.	2.a	2dd	.
2G	2d	1r	.	2b	1r
.	.	.	4g	.	.
2C	2e-	.	[2g	2cc	.
=42	=42	=42	=42	=42	=42
1D	2d	2r	2g]	1a	2r
.	2d	2a	1f	.	2dd
1A	2r	2a	.	1r	2dd
.	2A	2a	[2e	.	2cc
=43	=43	=43	=43	=43	=43
1D	1A	2f	4e]	1a	2ff
.	.	.	4d	.	.
.	.	2d	1d	.	1ff
1r	1A	1e	.	2a	.
.	.	.	2c#	2a	[2ee
=44	=44	=44	=44	=44	=44
0r	2d	2f	1d	2a	4ee]
.	.	.	.	.	4dd
.	2G	2g	.	2b-	1dd
.	[1A	1e	1r	2.a	.
.	.	.	.	.	2cc#
.	.	.	.	4g	.
=45	=45	=45	=45	=45	=45
1D	1A]	2.a	2r	4f	2dd
.	.	.	.	4e	.
.	.	.	2f	4d	2a
.	.	4g	.	4e	.
2D	1d	4f	2f	4f	2a
.	.	4e	.	4g	.
2D	.	4d	2f	[2a	2a
.	.	4c	.	.	.
=46	=46	=46	=46	=46	=46
2G	1r	2B-	2d	4a]	2b-
.	.	.	.	4g	.
2C	.	2c	2e-	1g	2g
1D	2r	1A	1d	.	1dd
.	[2d	.	.	2f#	.
=47	=47	=47	=47	=47	=47
[0G	2d]	[0G	[0d	[0g	[0dd
.	2B	.	.	.	.
.	1B	.	.	.	.
=48	=48	=48	=48	=48	=48
0G]	0B	0G]	0d]	0g]	0dd]
==	==	==	==	==	==
*-	*-	*-	*-	*-	*-
!!!CDT: 1525/^1526/-1594/2/2
!!!OCY: Italia
!!!AGN: Mass (Parody)
!!!AST: renaissance, vocal
!!!ASW: Madrigal 1565 (Primavera)
!!!PWK: Masses, Book 5
!!!RNB: Cadence finals: D
!!!YOR: Le Opere Complete, v. 15, p. 161
!!!YOO: Rome, Italy: Fratelli Scalera
!!!END: 1992//
!!!EED: John Miller
!!!YEC: Copyright 2000, John Miller
!!!YEN: United States of America
!!!YEM: Rights to all derivative electronic formats reserved.
!!!YEM: Refer to licensing agreement for further details.
!!!YEM: This file must be accompanied by the licensing agreement.
!!!YEM: A copy of the licensing agreement may be found at http://www.music-cog.ohio-state.edu/HumdrumDatabases/Palestrina/license.txt
!!!EMD: converted to Humdrum by Bret Aarden
